ix/flash-slash_bold.svg

<svg viewBox="0 0 24 24" fill="none" xmlns="http://www.w3.org/2000/svg" height="1em" width="1em">
  <path d="M21.7709 2.22891C21.4709 1.92891 20.9809 1.92891 20.6809 2.22891L2.23086 20.6889C1.93086 20.9889 1.93086 21.4789 2.23086 21.7789C2.38086 21.9189 2.57086 21.9989 2.77086 21.9989C2.97086 21.9989 3.16086 21.9189 3.31086 21.7689L21.7709 3.30891C22.0809 3.00891 22.0809 2.52891 21.7709 2.22891Z" fill="#292D32"/>
  <path d="M14.8205 3.52087V9.18087L9.1805 14.8209V13.2809H6.0905C4.6905 13.2809 4.3005 12.4209 5.2305 11.3709L12.0005 3.67087L12.8005 2.76087C13.9105 1.50087 14.8205 1.84087 14.8205 3.52087Z" fill="#292D32"/>
  <path d="M18.7697 12.6287L11.9997 20.3287L11.1997 21.2387C10.0897 22.4987 9.17969 22.1587 9.17969 20.4787V17.8187L16.2797 10.7188H17.9097C19.3097 10.7188 19.6997 11.5787 18.7697 12.6287Z" fill="#292D32"/>
</svg>

<svg viewBox="0 0 24 24" fill="none" xmlns="http://www.w3.org/2000/svg" height="1em" width="1em">
  <path d="M21.77 2.229c-.3-.3-.79-.3-1.09 0L2.23 20.689c-.3.3-.3.79 0 1.09a.758.758 0 0 0 1.08-.01l18.46-18.46c.31-.3.31-.78 0-1.08Z" fill="#292D32"/>
  <path d="M14.82 3.52v5.66l-5.64 5.64v-1.54H6.09c-1.4 0-1.79-.86-.86-1.91L12 3.67l.8-.91c1.11-1.26 2.02-.92 2.02.76Zm3.95 9.109-6.77 7.7-.8.91c-1.11 1.26-2.02.92-2.02-.76v-2.66l7.1-7.1h1.63c1.4 0 1.79.86.86 1.91Z" fill="#292D32"/>
</svg>
